assets/images/frenchpress-8cup.svg

<svg viewBox="0 0 47.02 77.7" xmlns="http://www.w3.org/2000/svg"><g fill="#0743ff"><path d="m19.28 7.17a3.59 3.59 0 1 0 -3.59-3.58 3.59 3.59 0 0 0 3.59 3.58z"/><path d="m36.56 29.1h-15.28v-4.46h15.28l2-2a13.52 13.52 0 0 0 -13.51-13.5h-11.54a13.52 13.52 0 0 0 -13.51 13.5l2 2h15.28v4.46h-15.28l-2 2v39.1a7.52 7.52 0 0 0 7.5 7.5h23.56a7.52 7.52 0 0 0 7.5-7.5v-17.2l5.44-5.57a10.42 10.42 0 0 0 3-7.43v-.47a10.48 10.48 0 0 0 -10.44-10.43zm-32.35-8.46a9.52 9.52 0 0 1 9.3-7.5h11.54a9.52 9.52 0 0 1 9.3 7.5zm30.35 49.56a3.5 3.5 0 0 1 -3.5 3.5h-23.56a3.5 3.5 0 0 1 -3.5-3.5v-37.1h13.28v32.16h-9.12v4h22.24v-4h-9.12v-32.16h13.28zm8.44-30.2a6.4 6.4 0 0 1 -1.92 4.59l-2.54 2.64v-13.81a6.47 6.47 0 0 1 4.46 6.14z"/></g></svg>

<svg xmlns="http://www.w3.org/2000/svg" viewBox="0 0 47.02 77.7"><defs><style>.cls-1{fill:#0743ff;}</style></defs><title>8cup-fp</title><g id="Layer_2" data-name="Layer 2"><g id="Layer_1-2" data-name="Layer 1"><path class="cls-1" d="M19.28,7.17a3.59,3.59,0,1,0-3.59-3.58A3.59,3.59,0,0,0,19.28,7.17Z"/><path class="cls-1" d="M36.56,29.1H21.28V24.64H36.56l2-2A13.52,13.52,0,0,0,25.05,9.14H13.51A13.52,13.52,0,0,0,0,22.64l2,2H17.28V29.1H2l-2,2V70.2a7.52,7.52,0,0,0,7.5,7.5H31.06a7.52,7.52,0,0,0,7.5-7.5V53L44,47.43A10.42,10.42,0,0,0,47,40v-.47A10.48,10.48,0,0,0,36.56,29.1ZM4.21,20.64a9.52,9.52,0,0,1,9.3-7.5H25.05a9.52,9.52,0,0,1,9.3,7.5ZM34.56,70.2a3.5,3.5,0,0,1-3.5,3.5H7.5A3.5,3.5,0,0,1,4,70.2V33.1H17.28V65.26H8.16v4H30.4v-4H21.28V33.1H34.56ZM43,40a6.4,6.4,0,0,1-1.92,4.59l-2.54,2.64V33.42A6.47,6.47,0,0,1,43,39.56Z"/></g></g></svg>
